packages/icons/src/helmets.svg

<svg width="24" height="24" viewBox="0 0 24 24" fill="none" xmlns="http://www.w3.org/2000/svg">
<path fill-rule="evenodd" clip-rule="evenodd" d="M22.002 16C22.002 9.37258 16.6294 4 10.002 4C5.58368 4 2.00195 7.58172 2.00195 12C2.00195 16.4183 5.58368 20 10.002 20H20.002C21.1065 20 22.002 19.1046 22.002 18V16ZM10.002 18H20.002V16C20.002 15.6625 19.9852 15.3289 19.9526 15H13.5489C11.5914 15 10.0045 13.4131 10.0045 11.4556C10.0045 10.1347 10.7391 8.9234 11.9103 8.31275L14.3982 7.01569C13.0714 6.36521 11.5793 6 10.002 6C6.68824 6 4.00195 8.68629 4.00195 12C4.00195 15.3137 6.68824 18 10.002 18ZM19.5442 13H13.5489C12.696 13 12.0045 12.3086 12.0045 11.4556C12.0045 10.8801 12.3246 10.3523 12.8349 10.0862L16.3356 8.2611C17.8238 9.48051 18.9539 11.1207 19.5442 13Z" fill="black"/>
</svg>

<svg xmlns="http://www.w3.org/2000/svg" width="24" height="24" fill="none" viewBox="0 0 24 24">
  <path fill="#000" fill-rule="evenodd" d="M22.002 16c0-6.627-5.373-12-12-12a8 8 0 1 0 0 16h10a2 2 0 0 0 2-2v-2Zm-12 2h10v-2c0-.338-.017-.671-.05-1H13.55a3.544 3.544 0 0 1-1.639-6.687l2.488-1.297A9.96 9.96 0 0 0 10.002 6a6 6 0 1 0 0 12Zm9.542-5H13.55a1.544 1.544 0 0 1-.714-2.914l3.5-1.825A10.013 10.013 0 0 1 19.546 13Z" clip-rule="evenodd"/>
</svg>
